X:1
T:O'Keefe's Slide
M:6/16
L:1/16
R:Jig
K:Edor
D |\
"Em"E2B B2A | "D"FEF A2F | "Em"E2B B2A | "D"F2D  DEF |\
"Em"E2B B2A | "D"FEF A3  |     FEF A2B | "Em"F2E E2 :|
|: A |\
"Em"B2e e2f | e2d B2A | B2e e2f |     e2d B2c |\
"D" d2e d2B | AFE D2E | FEF A2B | "Em"F2E E2 :|
